src/liquid/components/ld-icon/assets/world.svg

<svg viewBox="0 0 24 24" fill="none"><path fill-rule="evenodd" clip-rule="evenodd" d="M8.0198 13c.1038 2.6148.6105 4.9333 1.3627 6.562-2.8298-.9794-4.939-3.5024-5.3206-6.562h3.9579zm2.0016 0c.0929 2.15.4795 4.0092 1.0071 5.3283.3062.7654.6207 1.2505.8676 1.5116a1.518 1.518 0 0 0 .1039.1008 1.518 1.518 0 0 0 .1039-.1008c.2469-.2611.5614-.7462.8676-1.5116.5276-1.3191.9142-3.1783 1.0071-5.3283h-3.9572zm3.9572-2h-3.9572c.0929-2.15.4795-4.0092 1.0071-5.3283.3062-.7654.6207-1.2505.8676-1.5116A1.5316 1.5316 0 0 1 12 4.0593c.0289.0252.0635.0581.1039.1008.2469.261.5614.7462.8676 1.5116.5276 1.3191.9142 3.1783 1.0071 5.3283zm2.0016 2c-.1038 2.6148-.6105 4.9333-1.3627 6.562 2.8298-.9794 4.9391-3.5024 5.3206-6.562h-3.9579zm3.9579-2h-3.9578c-.1039-2.6148-.6106-4.9333-1.3628-6.562 2.8298.9794 4.9391 3.5024 5.3206 6.562zM8.0198 11h-3.958c.3816-3.0596 2.4909-5.5826 5.3207-6.562C8.6303 6.0667 8.1235 8.3852 8.0197 11zM22 12c0-5.5229-4.4772-10-10-10C6.4771 2 2 6.4771 2 12c0 5.5228 4.4771 10 10 10 5.5228 0 10-4.4772 10-10z" fill="currentcolor"/></svg>

<svg width="24" height="24" fill="none" xmlns="http://www.w3.org/2000/svg"><path fill-rule="evenodd" clip-rule="evenodd" d="M8.02 13c.104 2.615.61 4.933 1.363 6.562A8.009 8.009 0 0 1 4.062 13H8.02zm2.001 0c.093 2.15.48 4.01 1.007 5.328.307.766.621 1.25.868 1.512.04.043.075.076.104.1.029-.024.063-.057.104-.1.247-.261.561-.746.868-1.512.527-1.319.914-3.178 1.007-5.328H10.02zm3.958-2H10.02c.093-2.15.48-4.01 1.007-5.328.307-.766.621-1.25.868-1.512.04-.043.075-.075.104-.1.029.025.063.057.104.1.247.261.561.746.868 1.512.527 1.319.914 3.178 1.007 5.328zm2.001 2c-.104 2.615-.61 4.933-1.363 6.562A8.009 8.009 0 0 0 19.938 13H15.98zm3.958-2H15.98c-.104-2.615-.61-4.933-1.363-6.562A8.009 8.009 0 0 1 19.938 11zM8.02 11H4.062a8.009 8.009 0 0 1 5.32-6.562C8.63 6.067 8.125 8.385 8.02 11zM22 12c0-5.523-4.477-10-10-10S2 6.477 2 12s4.477 10 10 10 10-4.477 10-10z" fill="currentcolor"/></svg>
